!!!COM: Palestrina, Giovanni Perluigi da
!!!OPR: Sine nomine (1567)
!!!OTL: Kyrie
**kern	**kern	**kern	**kern
*Ibass	*Itenor	*Icalto	*Icant
!Bassus	!Tenor	!Altus	!Cantus
*clefF4	*clefGv2	*clefG2	*clefG2
*k[]	*k[]	*k[]	*k[]
*E:phr	*E:phr	*E:phr	*E:phr
*M4/2	*M4/2	*M4/2	*M4/2
=1	=1	=1	=1
0r	0r	0A	0r
=2	=2	=2	=2
0r	0r	1c	0r
.	.	1B	.
=3	=3	=3	=3
0r	0r	4A	0e
.	.	4B	.
.	.	4c	.
.	.	4d	.
.	.	4e	.
.	.	4f	.
.	.	[2g	.
=4	=4	=4	=4
0r	0r	4g]	1g
.	.	4f	.
.	.	1e	.
.	.	.	1f
.	.	2d	.
=5	=5	=5	=5
0E	0r	2.g	4e
.	.	.	4f
.	.	.	4g
.	.	4f	4a
.	.	[1e	4b
.	.	.	4g
.	.	.	[2cc
=6	=6	=6	=6
1G	0r	2e]	2cc]
.	.	4d	2.b
.	.	4c	.
1F	.	4d	.
.	.	4c	4a
.	.	4B	[2a
.	.	4A	.
=7	=7	=7	=7
1E	1r	1B	2a]
.	.	.	2g
4AA	[1E	[1e	1cc
4BB	.	.	.
4C	.	.	.
4D	.	.	.
=8	=8	=8	=8
4E	1E]	2e]	1b
4F	.	.	.
2.G	.	4d	.
.	.	4c	.
.	1G	1B	1r
4F	.	.	.
[2E	.	.	.
=9	=9	=9	=9
2E]	1F	2c	1r
2D	.	2d	.
2.E	4E	1G	[1e
.	4F	.	.
.	4G	.	.
4F	4A	.	.
=10	=10	=10	=10
4G	2B	2r	1e]
4E	.	.	.
2A	2.c	2c	.
2G	.	2d	1g
.	4B	.	.
2E	[2B	2e	.
=11	=11	=11	=11
2F	4B]	2c	1f
.	4A	.	.
2D	1A	2d	.
1E	.	1B	1e
.	2G#	.	.
=12	=12	=12	=12
0AA	0A	2c	1e
.	.	2A	.
.	.	1c	2r
.	.	.	2e
=13	=13	=13	=13
0r	2r	1B	1g
.	2E	.	.
.	2F	2.A	1f
.	2D	.	.
.	.	4B	.
=14	=14	=14	=14
1r	1A	4c	2.e
.	.	4d	.
.	.	2.e	.
.	.	.	4f
[1E	2.G	.	4g
.	.	4f	4a
.	.	2g	2b
.	4A	.	.
=15	=15	=15	=15
1E]	2B	2e	2g
.	2.e	2.g	2.cc
1G	.	.	.
.	4d	4f	4b
.	2B	[2e	[2b
=16	=16	=16	=16
1F	2c	2e]	4b]
.	.	.	4a
.	2A	2d	1a
1E	1B	1e	.
.	.	.	2g#
=17	=17	=17	=17
0AA	0A	0e	0a
=18	=18	=18	=18
0r	0r	0e	0r
=19	=19	=19	=19
0r	0r	1c	1r
.	.	[1f	[1a
=20	=20	=20	=20
0r	0r	2f]	1a]
.	.	4e	.
.	.	4d	.
.	.	1e	1g
=21	=21	=21	=21
0r	0r	2.A	1.cc
.	.	4B	.
.	.	2c	.
.	.	2d	4b
.	.	.	4a
=22	=22	=22	=22
0E	0r	2G	1b
.	.	2.g	.
.	.	.	2.e
.	.	4f	.
.	.	4e	.
.	.	4d	4f
=23	=23	=23	=23
1C	1r	2e	1g
.	.	1c	.
[1F	[1A	.	1c
.	.	4B	.
.	.	4A	.
=24	=24	=24	=24
2F]	1A]	2c	0r
4E	.	2d	.
4D	.	.	.
1E	1G	1B	.
=25	=25	=25	=25
2AA	1.c	2.A	0a
1A	.	.	.
.	.	4B	.
.	.	2c	.
4G	4B	2d	.
4F	4A	.	.
=26	=26	=26	=26
1E	1B	1e	1g
2AA	2.A	2.c	[1cc
[2A	.	.	.
.	4B	4d	.
=27	=27	=27	=27
2A]	2c	4e	2cc]
.	.	4f	.
4G	2d	2.g	4b
4F	.	.	4a
1E	1G	.	1b
.	.	4f	.
.	.	4e	.
.	.	4d	.
=28	=28	=28	=28
2.F	2r	2c	2.a
.	1c	2f	.
4G	.	.	4b
2A	.	2e	2cc
2D	4B	2f	2dd
.	4A	.	.
=29	=29	=29	=29
1E	2c	2.e	1g
.	2B	.	.
.	.	4d	.
1AA	2.A	2c	2r
.	.	2A	[2cc
.	4G	.	.
=30	=30	=30	=30
1.A	1F	2c	2cc]
.	.	2d	4b
.	.	.	4a
.	1E	2e	2cc
2G	.	2B	2b
=31	=31	=31	=31
2.F	1.A	1c	2.a
4E	.	.	4g
1D	.	1d	1f
.	2B	.	.
=32	=32	=32	=32
0C	0c	0G	0e
==	==	==	==
*-	*-	*-	*-
!!!CDT: 1525/^1526/-1594/2/2
!!!OCY: Italia
!!!AGN: Mass (Free)
!!!AST: renaissance, vocal
!!!ASW: Motet 1539 (Jacquet)
!!!PWK: Masses, Book 2
!!!RNB: Cadence finals: A,C
!!!YOR: Le Opere Complete, v. 4, p. 53
!!!YOO: Rome, Italy: Fratelli Scalera
!!!END: 1992//
!!!EED: John Miller
!!!YEC: Copyright 2000, John Miller
!!!YEN: United States of America
!!!YEM: Rights to all derivative electronic formats reserved.
!!!YEM: Refer to licensing agreement for further details.
!!!YEM: This file must be accompanied by the licensing agreement.
!!!YEM: A copy of the licensing agreement may be found at http://www.music-cog.ohio-state.edu/HumdrumDatabases/Palestrina/license.txt
!!!EMD: converted to Humdrum by Bret Aarden
